resources/svg/database.svg

<svg width="15" height="15" viewBox="0 0 15 15" fill="none" xmlns="http://www.w3.org/2000/svg">
<path fill-rule="evenodd" clip-rule="evenodd" d="M7.5 0C5.53411 0 3.73573 0.227063 2.41295 0.604819C1.75496 0.792725 1.18616 1.02584 0.770363 1.30649C0.372144 1.57528 0 1.96886 0 2.49866V12.4922C0 13.022 0.372144 13.4156 0.770363 13.6844C1.18616 13.965 1.75496 14.1981 2.41295 14.386C3.73573 14.7638 5.53411 14.9908 7.5 14.9908C9.46589 14.9908 11.2643 14.7638 12.587 14.386C13.245 14.1981 13.8138 13.965 14.2296 13.6844C14.6279 13.4156 15 13.022 15 12.4922V2.49866C15 1.96886 14.6279 1.57528 14.2296 1.30649C13.8138 1.02584 13.245 0.792725 12.587 0.604819C11.2643 0.227063 9.46589 0 7.5 0ZM1.26222 2.86383L1.71405 3.07795C2.84095 3.61197 4.98314 3.99872 7.49994 3.99872C10.0167 3.99872 12.1589 3.61197 13.2858 3.07795L13.7377 2.86383L14.1659 3.7675L13.7141 3.98162C12.3912 4.60852 10.0758 4.99872 7.49994 4.99872C4.92408 4.99872 2.60872 4.60852 1.28582 3.98162L0.833984 3.7675L1.26222 2.86383ZM1.71405 8.04816L1.26222 7.83405L0.833984 8.73771L1.28582 8.95183C2.60872 9.57873 4.92408 9.96894 7.49994 9.96894C10.0758 9.96894 12.3912 9.57873 13.7141 8.95183L14.1659 8.73771L13.7377 7.83405L13.2858 8.04816C12.1589 8.58218 10.0167 8.96894 7.49994 8.96894C4.98314 8.96894 2.84095 8.58218 1.71405 8.04816Z" fill="black"/>
</svg>

<svg viewBox="0 0 15 15" fill="none" xmlns="http://www.w3.org/2000/svg" fill="currentColor"><path fill-rule="evenodd" clip-rule="evenodd" d="M7.5 0C5.534 0 3.736.227 2.413.605c-.658.188-1.227.42-1.643.701C.372 1.576 0 1.97 0 2.5v9.993c0 .53.372.924.77 1.192.416.281.985.514 1.643.702 1.323.378 3.121.605 5.087.605 1.966 0 3.764-.227 5.087-.605.658-.188 1.227-.421 1.643-.702.398-.268.77-.662.77-1.192V2.5c0-.53-.372-.924-.77-1.193-.416-.28-.985-.513-1.643-.701C11.264.227 9.466 0 7.5 0zM1.262 2.864l.452.214c1.127.534 3.27.92 5.786.92 2.517 0 4.659-.386 5.786-.92l.452-.214.428.904-.452.214c-1.323.627-3.638 1.017-6.214 1.017-2.576 0-4.891-.39-6.214-1.017l-.452-.215.428-.903zm.452 5.184l-.452-.214-.428.904.452.214c1.323.627 3.638 1.017 6.214 1.017 2.576 0 4.891-.39 6.214-1.017l.452-.214-.428-.904-.452.214c-1.127.534-3.27.92-5.786.92-2.517 0-4.659-.386-5.786-.92z" fill="currentColor"/></svg>
